svg/Octicons/device-mobile.svg

<svg xmlns="http://www.w3.org/2000/svg" viewBox="0 0 640 1024"><path d="m576 0h-512c-35.31 0-64 28.688-64 64v896c0 35.37 28.688 64 64 64h512c35.37 0 64-28.625 64-64v-896c0-35.31-28.625-64-64-64m-288 64h64c17.625 0 32 14.344 32 32s-14.375 32-32 32h-64c-17.656 0-32-14.344-32-32s14.344-32 32-32m64 896h-64c-17.656 0-32-14.375-32-32s14.344-32 32-32h64c17.625 0 32 14.375 32 32s-14.375 32-32 32m224-128h-512v-640h512v640"/></svg>

<svg height="1024" width="640" xmlns="http://www.w3.org/2000/svg">
  <path d="M576 0H64C28.688 0 0 28.687999999999988 0 64v896c0 35.375 28.688 64 64 64h512c35.375 0 64-28.625 64-64V64C640 28.687999999999988 611.375 0 576 0zM288 64h64c17.625 0 32 14.344 32 32s-14.375 32-32 32h-64c-17.656 0-32-14.344-32-32S270.344 64 288 64zM352 960h-64c-17.656 0-32-14.375-32-32s14.344-32 32-32h64c17.625 0 32 14.375 32 32S369.625 960 352 960zM576 832H64V192h512V832z" />
</svg>
